X:1
T:Title
%%score { ( 1 3 ) | ( 2 4 ) }
L:1/8
M:4/4
K:A
V:1 treble nm="Grand Piano"
V:3 treble 
V:2 bass 
V:4 bass 
V:1
 z4 z2[Q:1/4=100] E2 | A2 AA A2 B2 | AGG=G ^G2 E2 | BBBB B2 c2 | BAAG A2 E2 | c2 cc c2 AA | %6
 [FB][FA][EG][DF] [CE]2 [=CF]2 | [B,G][EB][EB][Ec] [^DB]FGA | B6 z2 | z4 c4 | %10
[M:3/4] [FB]>[A,FA] [A,FA]>[A,DF] [CE]2 |[M:1/4] [A,CE]2 | %12
[M:4/4] [A,EA]>[A,EA] [A,EA]>[EB] [Ec] [Ee]2 [Ec] | c>B B>c B4 | z4 c4 | %15
 [FB]>[FA] [FA]>F E2 [Fd]2 | [Ec]>[Ae] [Ae]>[Gd] [Ac]>[Ac] [DGB]>[DGB] |[M:3/4] [CA]6 |] %18
V:2
 z4 z2 [A,C]2 | [A,CE]2 [A,CE][A,CE] [A,CE]2 [A,CE]2 | %2
 [E,B,D][E,B,D][E,B,D][E,^A,D] [E,B,D]2 [E,G,D]2 | [E,G,D][E,G,D][E,G,D][E,G,D] [E,G,D]2 [E,G,E]2 | %4
 [A,D][A,C][A,C][A,B,][K:treble] [A,C]2 [A,C]2 | [A,EA]2 [A,EA][A,EA] [A,EA]2 [A,C=G][A,CG] | %6
 [D,D][D,D][D,A,][D,A,] [A,,A,]2 [A,,A,]2 | %7
 [B,,E,][B,,G,][B,,G,][B,,A,] [B,,F,][A,B,^D][G,B,E][F,A,D] | [E,G,D]6 z2 | z4 E2 z2 | %10
[M:3/4] [D,A,]>D, D,>D, A,2 |[M:1/4] A,,2 |[M:4/4] C,>C, C,>[B,,G,] [A,,A,] [C,A,]2 [A,,A,] | %13
 [E,A,E]>[E,G,E] [E,G,E]>[E,A,E] [E,G,E]4 | z4 E2 z2 | %15
 [D,A,]>[D,A,] [D,A,]>[D,A,D] [A,C]2 [D,A,]2 | [E,A,]>[E,C] [E,C]>[E,B,] [E,E]>[E,E] E,>E, | %17
[M:3/4] A,,6 |] %18
V:3
 x8 | x8 | x8 | x8 | x8 | x8 | x8 | x8 | x8 | c>B A>B z2 =G2 |[M:3/4] x6 |[M:1/4] x2 |[M:4/4] x8 | %13
 x8 | c>B A>B z2 =G2 | x8 | x8 |[M:3/4] x6 |] %18
V:4
 x8 | x8 | x8 | x8 | x4[K:treble] x4 | x8 | x8 | x8 | x8 | [A,C]>[A,C] [A,C]>[A,D] A,4 | %10
[M:3/4] x6 |[M:1/4] x2 |[M:4/4] x8 | x8 | [A,E]>[A,D] [A,C]>[A,D] A,4 | x8 | x8 |[M:3/4] x6 |] %18

